packages/katcn/src/icons/svg/airplane-solid.svg

<svg width="24" height="24" viewBox="0 0 24 24" fill="none" xmlns="http://www.w3.org/2000/svg">
<path d="M20.8868 3.13145C19.2347 1.49407 16.6647 1.676 15.1961 3.40435L13.1768 5.86043L4.45718 4.31401C3.81468 4.22304 3.0804 4.40498 2.62147 4.95077C1.7954 5.76946 1.7954 7.13395 2.62147 7.95264C2.71326 8.04361 2.89683 8.13457 3.0804 8.22554L8.58754 11.2274L2.52968 18.2318C1.7954 19.1414 1.7954 20.5059 2.71326 21.3246C3.53933 22.1433 4.91611 22.2343 5.83397 21.5065L12.7179 15.3209L15.7468 20.7788C16.4811 21.9614 18.1333 22.2343 19.1429 21.2337C19.51 20.8698 19.7854 20.324 19.7854 19.7782C19.7854 19.6872 19.7854 19.5053 19.7854 19.4143L18.225 10.8635L20.7032 8.8623C20.795 8.77133 20.8868 8.68037 20.9786 8.5894C22.3554 7.13395 22.3554 4.67787 20.8868 3.13145Z" fill="black"/>
</svg>

<svg xmlns="http://www.w3.org/2000/svg" fill="none" viewBox="0 0 24 24"><path fill="#000" d="M20.887 3.131c-1.652-1.637-4.222-1.455-5.69.273l-2.02 2.456-8.72-1.546c-.642-.091-1.377.091-1.836.637a2.13 2.13 0 0 0 0 3.002c.092.09.276.182.46.273l5.507 3.001-6.058 7.005c-.735.91-.735 2.274.183 3.093.826.818 2.203.91 3.121.181l6.884-6.185 3.029 5.458c.734 1.182 2.386 1.455 3.396.455.367-.364.642-.91.642-1.456v-.364l-1.56-8.55 2.478-2.002.276-.273c1.376-1.455 1.376-3.911-.092-5.458"/></svg>
